svgs/deskdock.svg

<svg width="192" height="192" viewBox="0 0 192 192" fill="none" xmlns="http://www.w3.org/2000/svg">
<rect x="40" y="77" width="112" height="71" rx="6" stroke="black" stroke-width="12" stroke-linejoin="round"/>
<path d="M106.894 130L97.752 117.78M97.752 117.78L88.0851 124.714L82 95L108 110.429L97.752 117.78Z" stroke="black" stroke-width="10" stroke-linecap="round" stroke-linejoin="round"/>
<path d="M133 70C133 55.1 124.193 42.2571 111.5 36.3933M59 70C59 55.1 67.8073 42.2571 80.5 36.3933M80.5 36.3933C85.2147 34.2152 90.4654 33 96 33C101.535 33 106.785 34.2152 111.5 36.3933M80.5 36.3933L72.5 22M111.5 36.3933L119.5 22" stroke="black" stroke-width="12" stroke-linecap="round"/>
<circle cx="83" cy="58" r="3" stroke="black" stroke-width="6" stroke-linecap="round" stroke-linejoin="round"/>
<circle cx="109" cy="58" r="3" stroke="black" stroke-width="6" stroke-linecap="round" stroke-linejoin="round"/>
<path d="M79 170H113" stroke="black" stroke-width="12" stroke-linecap="round" stroke-linejoin="round"/>
<path d="M96 148V170" stroke="black" stroke-width="12" stroke-linecap="round" stroke-linejoin="round"/>
</svg>

<svg xmlns="http://www.w3.org/2000/svg" width="192" height="192" fill="none" viewBox="0 0 192 192"><rect width="112" height="71" x="40" y="77" stroke="#000" stroke-linejoin="round" stroke-width="12" rx="6"/><path stroke="#000" stroke-linecap="round" stroke-linejoin="round" stroke-width="10" d="m106.894 130-9.142-12.22m0 0-9.667 6.934L82 95l26 15.429z"/><path stroke="#000" stroke-linecap="round" stroke-width="12" d="M133 70c0-14.9-8.807-27.743-21.5-33.607M59 70c0-14.9 8.807-27.743 21.5-33.607m0 0a36.9 36.9 0 0 1 31 0m-31 0L72.5 22m39 14.393 8-14.393"/><circle cx="83" cy="58" r="3" stroke="#000" stroke-linecap="round" stroke-linejoin="round" stroke-width="6"/><circle cx="109" cy="58" r="3" stroke="#000" stroke-linecap="round" stroke-linejoin="round" stroke-width="6"/><path stroke="#000" stroke-linecap="round" stroke-linejoin="round" stroke-width="12" d="M79 170h34m-17-22v22"/></svg>
